!!!OTL: Der Werber und der Jude Zu Strassburg steht ein schoenes Haus,
!!!ARE: Europa, Mitteleuropa, Deutschland / France, Lothringen, Kr. Saargemuend,
!!    Hambach
!!!YOR: 6, S. 149
!!    1930 aufgezeichnet
!!!SCT: Q0131A
!!!YEM: Copyright 1995, estate of Helmut Schaffrath.
**kern
*ICvox
*Ivox
*M4/4
*k[f#]
*G:
{4dd
=1
4dd
4ee
4dd
4b
=2
4g
4e
4d}
{4d
=3
4g
4b
8a
8a
4g
=4
4f#
8f#
8f#
4g}
{4g
=5
4dd
4dd
4dd
4dd
=6
2dd
4g}
{4dd
=7
4dd
4cc
4b
4a
=8
4g
4e
4d}
{4d
=9
4g
4a
4b
4b
=10
2a
4g}
==
!!!AGN: Ballade, Braut - Werbung, Erpressung
!!!ONB: ESAC (Essen Associative Code) Database: BALLADE
!!!AMT: simple quadruple
!!!AIN: vox
!!!EED: Helmut Schaffrath
!!!EEV: 1.0
*-
